;FLAVOR:Marlin
;TIME:2516
;Filament used: 1.42441m
;Layer height: 0.2
;MINX:49
;MINY:88.65
;MINZ:0.2
;MAXX:171
;MAXY:123.65
;MAXZ:14
;Generated with Cura_SteamEngine 5.3.1
M82 ;absolute extrusion mode
; Ender 3 Custom Start G-code
G92 E0 ; Reset Extruder
G28 ; Home all axes
M104 S175 ; Start heating up the nozzle most of the way
M190 S60 ; Start heating the bed, wait until target temperature reached
M109 S200 ; Finish heating the nozzle
G1 Z2.0 F3000 ; Move Z Axis up little to prevent scratching of Heat Bed
G1 X0.1 Y20 Z0.3 F5000.0 ; Move to start position
G1 X0.1 Y200.0 Z0.3 F1500.0 E15 ; Draw the first line
G1 X0.4 Y200.0 Z0.3 F5000.0 ; Move to side a little
G1 X0.4 Y20 Z0.3 F1500.0 E30 ; Draw the second line
G92 E0 ; Reset Extruder
G1 Z2.0 F3000 ; Move Z Axis up little to prevent scratching of Heat Bed
G1 X5 Y20 Z0.3 F5000.0 ; Move over to prevent blob squish
G92 E0
G92 E0
G1 F1500 E-6.5
;LAYER_COUNT:70
;LAYER:0
M107
G0 F6000 X55.164 Y97.683 Z0.2
;TYPE:SKIRT
G1 F1500 E0
G1 F1200 X55.977 Y97.29 E0.03003
G1 X56.822 Y96.97 E0.06009
G1 X57.692 Y96.726 E0.09014
G1 X58.579 Y96.56 E0.12015
G1 X59.723 Y96.463 E0.15834
G1 X60.33 Y96.45 E0.17853
G1 X62.438 Y96.451 E0.24865
G1 X63.139 Y96.461 E0.27196
G1 X64.041 Y96.514 E0.30202
G1 X64.99 Y96.657 E0.33394
G1 X67.588 Y97.176 E0.42205
G1 X70.078 Y97.601 E0.50607
G1 X72.618 Y97.962 E0.5914
G1 X75.118 Y98.246 E0.67508
G1 X77.671 Y98.463 E0.7603
G1 X80.201 Y98.605 E0.84458
G1 X82.735 Y98.676 E0.9289
G1 X85.269 Y98.676 E1.01318
G1 X87.833 Y98.603 E1.09849
G1 X90.339 Y98.46 E1.18198
G1 X92.892 Y98.242 E1.2672
G1 X95.403 Y97.956 E1.35126
G1 X97.906 Y97.599 E1.43535
G1 X100.436 Y97.165 E1.52073
G1 X103.037 Y96.652 E1.6089
G1 X103.93 Y96.516 E1.63895
G1 X104.723 Y96.463 E1.66538
G1 X105.33 Y96.45 E1.68557
G1 X107.451 Y96.451 E1.75612
G1 X108.161 Y96.462 E1.77974
G1 X109.006 Y96.51 E1.80789
G1 X109.873 Y96.596 E1.83686
G1 X112.492 Y96.818 E1.92428
G1 X115.022 Y96.96 E2.00857
G1 X117.556 Y97.031 E2.09288
G1 X120.089 Y97.031 E2.17713
G1 X122.629 Y96.958 E2.26164
G1 X125.177 Y96.814 E2.34652
G1 X127.716 Y96.597 E2.43128
G1 X130.214 Y96.312 E2.5149
G1 X132.744 Y95.952 E2.5999
G1 X135.247 Y95.523 E2.68436
G1 X137.713 Y95.027 E2.76803
G1 X140.188 Y94.458 E2.85249
G1 X142.668 Y93.812 E2.93773
G1 X145.097 Y93.105 E3.02187
G1 X147.516 Y92.326 E3.1064
G1 X149.915 Y91.479 E3.19101
G1 X152.347 Y90.541 E3.27771
G1 X152.942 Y90.297 E3.2991
G1 X153.447 Y90.102 E3.3171
G1 X154.306 Y89.824 E3.34713
G1 X155.187 Y89.624 E3.37718
G1 X156.081 Y89.502 E3.40719
G1 X156.723 Y89.463 E3.42858
G1 X157.33 Y89.45 E3.44878
G1 X159.293 Y89.45 E3.51407
G1 X160.137 Y89.461 E3.54214
G1 X161.039 Y89.514 E3.57219
G1 X161.932 Y89.646 E3.60222
G1 X162.81 Y89.857 E3.63225
G1 X163.666 Y90.145 E3.66229
G1 X164.493 Y90.507 E3.69232
G1 X165.285 Y90.942 E3.72237
G1 X166.036 Y91.444 E3.75242
G1 X166.739 Y92.011 E3.78245
G1 X167.389 Y92.638 E3.81249
G1 X167.981 Y93.32 E3.84253
G1 X168.511 Y94.051 E3.87256
G1 X168.973 Y94.827 E3.9026
G1 X169.366 Y95.64 E3.93263
G1 X169.684 Y96.485 E3.96266
G1 X169.927 Y97.355 E3.99271
G1 X170.092 Y98.243 E4.02275
G1 X170.187 Y99.373 E4.06046
G1 X170.2 Y99.98 E4.08066
G1 X170.199 Y112.04 E4.48177
G1 X170.19 Y112.767 E4.50596
G1 X170.139 Y113.669 E4.536
G1 X170.008 Y114.563 E4.56606
G1 X169.799 Y115.441 E4.59607
G1 X169.513 Y116.298 E4.62612
G1 X169.152 Y117.126 E4.65617
G1 X168.72 Y117.918 E4.68617
G1 X168.219 Y118.67 E4.71623
G1 X167.653 Y119.374 E4.74627
G1 X167.028 Y120.025 E4.77629
G1 X166.347 Y120.619 E4.80634
G1 X165.616 Y121.15 E4.83639
G1 X164.842 Y121.614 E4.86641
G1 X164.029 Y122.008 E4.89646
G1 X163.185 Y122.328 E4.92648
G1 X162.315 Y122.573 E4.95654
G1 X161.428 Y122.739 E4.98655
G1 X160.277 Y122.837 E5.02497
G1 X159.67 Y122.85 E5.04517
G1 X60.575 Y122.849 E8.34108
G1 X59.877 Y122.84 E8.3643
G1 X58.976 Y122.789 E8.39431
G1 X58.082 Y122.657 E8.42437
G1 X57.204 Y122.448 E8.45439
G1 X56.347 Y122.161 E8.48445
G1 X55.52 Y121.8 E8.51446
G1 X54.727 Y121.367 E8.54451
G1 X53.976 Y120.866 E8.57454
G1 X53.272 Y120.3 E8.60458
G1 X52.621 Y119.674 E8.63462
G1 X52.028 Y118.993 E8.66466
G1 X51.498 Y118.262 E8.69469
G1 X51.034 Y117.487 E8.72473
G1 X50.64 Y116.674 E8.75478
G1 X50.32 Y115.83 E8.7848
G1 X50.076 Y114.96 E8.81485
G1 X49.91 Y114.072 E8.8449
G1 X49.813 Y112.917 E8.88345
G1 X49.8 Y112.308 E8.90371
G1 X49.801 Y107.215 E9.0731
G1 X49.81 Y106.526 E9.09602
G1 X49.862 Y105.624 E9.12607
G1 X49.993 Y104.731 E9.15609
G1 X50.203 Y103.852 E9.18615
G1 X50.489 Y102.996 E9.21617
G1 X50.851 Y102.168 E9.24623
G1 X51.284 Y101.376 E9.27625
G1 X51.785 Y100.625 E9.30627
G1 X52.351 Y99.921 E9.33632
G1 X52.977 Y99.27 E9.36636
G1 X53.659 Y98.677 E9.39642
G1 X54.39 Y98.147 E9.42645
G1 X55.164 Y97.683 E9.45646
G0 F6000 X54.958 Y97.34
G1 F1200 X55.835 Y96.916 E9.48886
G1 X56.68 Y96.596 E9.51891
G1 X57.618 Y96.333 E9.55131
G1 X58.545 Y96.161 E9.58267
G1 X59.689 Y96.064 E9.62086
G1 X60.33 Y96.05 E9.64218
G1 X62.444 Y96.051 E9.7125
G1 X63.162 Y96.062 E9.73638
G1 X64.101 Y96.118 E9.76767
G1 X65.05 Y96.261 E9.79959
G1 X67.662 Y96.783 E9.88818
G1 X70.134 Y97.205 E9.97159
G1 X72.674 Y97.566 E10.05692
G1 X75.152 Y97.847 E10.13986
G1 X77.705 Y98.065 E10.22509
G1 X80.212 Y98.205 E10.3086
G1 X82.746 Y98.276 E10.39291
G1 X85.258 Y98.276 E10.47646
G1 X87.822 Y98.203 E10.56178
G1 X90.305 Y98.062 E10.6445
G1 X92.858 Y97.844 E10.72972
G1 X95.347 Y97.56 E10.81304
G1 X97.85 Y97.203 E10.89713
G1 X100.368 Y96.771 E10.9821
G1 X102.977 Y96.257 E11.07055
G1 X103.903 Y96.117 E11.1017
G1 X104.714 Y96.063 E11.12873
G1 X105.33 Y96.05 E11.14922
G1 X107.457 Y96.051 E11.21997
G1 X108.184 Y96.063 E11.24415
G1 X109.045 Y96.112 E11.27283
G1 X109.907 Y96.197 E11.30164
G1 X112.526 Y96.42 E11.38907
G1 X115.033 Y96.56 E11.47258
G1 X117.567 Y96.631 E11.55689
G1 X120.078 Y96.631 E11.64041
G1 X122.618 Y96.558 E11.72493
G1 X125.143 Y96.415 E11.80904
G1 X127.682 Y96.199 E11.8938
G1 X130.158 Y95.916 E11.97668
G1 X132.688 Y95.556 E12.06168
G1 X135.172 Y95.13 E12.1455
G1 X137.623 Y94.637 E12.22866
G1 X140.098 Y94.068 E12.31312
G1 X142.56 Y93.427 E12.39774
G1 X144.974 Y92.724 E12.48136
G1 X147.393 Y91.945 E12.56589
G1 X149.775 Y91.105 E12.6499
G1 X152.195 Y90.171 E12.73617
G1 X152.798 Y89.924 E12.75785
G1 X153.324 Y89.721 E12.7766
G1 X154.183 Y89.443 E12.80663
G1 X155.098 Y89.234 E12.83785
G1 X156.057 Y89.103 E12.87004
G1 X156.714 Y89.063 E12.89193
G1 X157.321 Y89.05 E12.91212
G1 X159.298 Y89.05 E12.97788
G1 X160.16 Y89.062 E13.00655
G1 X161.097 Y89.118 E13.03777
G1 X161.99 Y89.25 E13.0678
G1 X162.938 Y89.478 E13.10023
G1 X163.794 Y89.766 E13.13027
G1 X164.686 Y90.156 E13.16265
G1 X165.478 Y90.591 E13.1927
G1 X166.258 Y91.111 E13.22388
G1 X167.017 Y91.723 E13.25631
G1 X167.667 Y92.35 E13.28635
G1 X168.305 Y93.085 E13.31872
G1 X168.855 Y93.846 E13.34995
G1 X169.317 Y94.622 E13.37998
G1 X169.74 Y95.499 E13.41237
G1 X170.069 Y96.377 E13.44355
G1 X170.32 Y97.282 E13.47479
G1 X170.491 Y98.209 E13.50614
G1 X170.586 Y99.339 E13.54386
G1 X170.6 Y99.98 E13.56518
G1 X170.599 Y112.045 E13.96647
G1 X170.589 Y112.79 E13.99125
G1 X170.535 Y113.727 E14.02247
G1 X170.404 Y114.621 E14.05252
G1 X170.188 Y115.534 E14.08372
G1 X169.88 Y116.458 E14.11612
G1 X169.519 Y117.286 E14.14616
G1 X169.053 Y118.14 E14.17852
G1 X168.531 Y118.921 E14.20976
G1 X167.965 Y119.625 E14.23981
G1 X167.317 Y120.302 E14.27098
G1 X166.582 Y120.943 E14.30341
G1 X165.851 Y121.474 E14.33346
G1 X165.048 Y121.957 E14.36463
G1 X164.171 Y122.382 E14.39704
G1 X163.327 Y122.702 E14.42707
G1 X162.389 Y122.966 E14.45948
G1 X161.462 Y123.138 E14.49083
G1 X160.311 Y123.236 E14.52925
G1 X159.67 Y123.25 E14.55058
G1 X60.57 Y123.249 E17.84666
G1 X59.854 Y123.239 E17.87048
G1 X58.918 Y123.185 E17.90166
G1 X58.024 Y123.053 E17.93172
G1 X57.111 Y122.837 E17.96292
G1 X56.187 Y122.528 E17.99533
G1 X55.36 Y122.167 E18.02534
G1 X54.505 Y121.7 E18.05774
G1 X53.725 Y121.178 E18.08896
G1 X53.021 Y120.612 E18.119
G1 X52.319 Y119.937 E18.15139
G1 X51.726 Y119.256 E18.18143
G1 X51.174 Y118.497 E18.21264
G1 X50.674 Y117.661 E18.24504
G1 X50.266 Y116.816 E18.27625
G1 X49.946 Y115.972 E18.30627
G1 X49.683 Y115.034 E18.33867
G1 X49.511 Y114.105 E18.3701
G1 X49.413 Y112.926 E18.40945
G1 X49.4 Y112.308 E18.43
G1 X49.401 Y107.21 E18.59957
G1 X49.411 Y106.503 E18.62308
G1 X49.466 Y105.566 E18.6543
G1 X49.597 Y104.673 E18.68432
G1 X49.814 Y103.759 E18.71556
G1 X50.122 Y102.836 E18.74793
G1 X50.484 Y102.008 E18.77798
G1 X50.951 Y101.154 E18.81036
G1 X51.473 Y100.374 E18.84157
G1 X52.039 Y99.67 E18.87162
G1 X52.715 Y98.968 E18.90403
G1 X53.424 Y98.353 E18.93525
G1 X54.155 Y97.823 E18.96528
G1 X54.958 Y97.34 E18.99645
G0 F6000 X54.752 Y96.997
G1 F1200 X55.693 Y96.542 E19.03121
G1 X56.538 Y96.222 E19.06126
G1 X57.51 Y95.948 E19.09485
G1 X58.511 Y95.762 E19.12872
G1 X59.655 Y95.665 E19.1669
G1 X60.33 Y95.65 E19.18936
G1 X62.45 Y95.651 E19.25987
G1 X63.186 Y95.663 E19.28435
G1 X64.161 Y95.722 E19.31684
G1 X65.11 Y95.865 E19.34876
G1 X67.736 Y96.39 E19.43783
G1 X70.19 Y96.809 E19.52063
G1 X72.73 Y97.17 E19.60596
G1 X75.186 Y97.448 E19.68817
G1 X77.739 Y97.667 E19.7734
G1 X80.223 Y97.805 E19.85614
G1 X82.757 Y97.876 E19.94046
G1 X85.247 Y97.876 E20.02327
G1 X87.811 Y97.803 E20.10859
G1 X90.271 Y97.664 E20.19054
G1 X92.824 Y97.446 E20.27576
G1 X95.291 Y97.164 E20.35835
G1 X97.794 Y96.807 E20.44244
G1 X100.3 Y96.377 E20.52701
G1 X102.917 Y95.861 E20.61572
G1 X103.843 Y95.721 E20.64687
G1 X104.706 Y95.663 E20.67564
G1 X105.33 Y95.65 E20.6964
G1 X107.464 Y95.651 E20.76738
G1 X108.207 Y95.664 E20.79209
G1 X109.084 Y95.714 E20.82131
G1 X109.941 Y95.798 E20.84995
G1 X112.56 Y96.022 E20.93738
G1 X115.044 Y96.16 E21.02012
G1 X117.578 Y96.231 E21.10444
G1 X120.067 Y96.231 E21.18722
G1 X122.607 Y96.158 E21.27174
G1 X125.109 Y96.016 E21.35509
G1 X127.648 Y95.801 E21.43984
G1 X130.102 Y95.52 E21.52199
G1 X132.632 Y95.16 E21.60699
G1 X135.097 Y94.737 E21.69017
G1 X137.533 Y94.247 E21.77282
G1 X140.008 Y93.678 E21.85728
G1 X142.452 Y93.042 E21.94128
G1 X144.851 Y92.343 E22.02439
G1 X147.27 Y91.564 E22.10891
G1 X149.635 Y90.731 E22.19231
G1 X152.043 Y89.801 E22.27817
G1 X152.654 Y89.551 E22.30012
G1 X153.201 Y89.34 E22.31962
G1 X154.06 Y89.062 E22.34965
G1 X155.009 Y88.844 E22.38204
G1 X156.033 Y88.704 E22.41641
G1 X156.705 Y88.663 E22.43881
G1 X157.312 Y88.65 E22.459
G1 X159.304 Y88.65 E22.52525
G1 X160.184 Y88.663 E22.55452
G1 X161.155 Y88.722 E22.58688
G1 X162.084 Y88.861 E22.61812
G1 X163.032 Y89.089 E22.65055
G1 X163.954 Y89.399 E22.68291
G1 X164.879 Y89.805 E22.7165
G1 X165.671 Y90.24 E22.74656
G1 X166.48 Y90.778 E22.77887
G1 X167.295 Y91.435 E22.81369
G1 X167.945 Y92.062 E22.84373
G1 X168.607 Y92.823 E22.87728
G1 X169.199 Y93.641 E22.91086
G1 X169.661 Y94.417 E22.9409
G1 X170.115 Y95.359 E22.97568
G1 X170.444 Y96.237 E23.00686
G1 X170.713 Y97.209 E23.04041
G1 X170.89 Y98.175 E23.07307
G1 X170.985 Y99.305 E23.11079
G1 X171 Y99.98 E23.13324
G1 X170.999 Y112.05 E23.53469
G1 X170.988 Y112.813 E23.56007
G1 X170.931 Y113.785 E23.59246
G1 X170.8 Y114.679 E23.62251
G1 X170.577 Y115.626 E23.65487
G1 X170.247 Y116.618 E23.68964
G1 X169.886 Y117.446 E23.71968
G1 X169.386 Y118.362 E23.75439
G1 X168.843 Y119.172 E23.78683
G1 X168.277 Y119.876 E23.81687
G1 X167.606 Y120.579 E23.84919
G1 X166.817 Y121.267 E23.88401
G1 X166.086 Y121.798 E23.91406
G1 X165.254 Y122.3 E23.94638
G1 X164.313 Y122.756 E23.98116
G1 X163.469 Y123.076 E24.01118
G1 X162.497 Y123.351 E24.04478
G1 X161.496 Y123.537 E24.07864
G1 X160.345 Y123.635 E24.11707
G1 X159.67 Y123.65 E24.13952
G1 X60.564 Y123.649 E27.4358
G1 X59.831 Y123.638 E27.46018
G1 X58.86 Y123.581 E27.49253
G1 X57.966 Y123.449 E27.52259
G1 X56.984 Y123.216 E27.55616
G1 X56.027 Y122.895 E27.58973
G1 X55.2 Y122.534 E27.61974
G1 X54.313 Y122.051 E27.65334
G1 X53.474 Y121.49 E27.68691
G1 X52.77 Y120.924 E27.71695
G1 X52.017 Y120.2 E27.75169
G1 X51.424 Y119.519 E27.78173
G1 X50.831 Y118.702 E27.8153
G1 X50.314 Y117.835 E27.84888
G1 X49.892 Y116.958 E27.88125
G1 X49.572 Y116.114 E27.91127
G1 X49.298 Y115.142 E27.94486
G1 X49.112 Y114.138 E27.97882
G1 X49.014 Y112.959 E28.01817
G1 X49 Y112.308 E28.03983
G1 X49.001 Y107.204 E28.20959
G1 X49.012 Y106.48 E28.23367
G1 X49.07 Y105.508 E28.26606
G1 X49.201 Y104.615 E28.29607
G1 X49.435 Y103.632 E28.32968
G1 X49.755 Y102.676 E28.36321
G1 X50.117 Y101.848 E28.39327
G1 X50.6 Y100.962 E28.42683
G1 X51.161 Y100.123 E28.4604
G1 X51.727 Y99.419 E28.49045
G1 X52.453 Y98.666 E28.52524
G1 X53.189 Y98.029 E28.55761
G1 X53.92 Y97.499 E28.58764
G1 X54.752 Y96.997 E28.61996
G1 F1500 E22.11996
;MESH:soporte camara.STL
G0 F6000 X63.653 Y105.997
G0 X63.653 Y108.997
G0 X107.717 Y110.18
;TYPE:WALL-INNER
G1 F1500 E28.61996
G1 F1200 X107.52 Y110.01 E28.62862
G1 X107.401 Y109.703 E28.63957
G1 X107.4 Y107.25 E28.72115
G1 X105.6 Y107.25 E28.78102
G1 X105.599 Y109.703 E28.86261
G1 X105.48 Y110.01 E28.87356
G1 X105.283 Y110.18 E28.88221
G1 X105.081 Y110.25 E28.88933
G1 X63 Y110.25 E30.28895
G1 X62.761 Y110.201 E30.29706
G1 X62.575 Y110.075 E30.30453
G1 X62.449 Y109.889 E30.312
G1 X62.4 Y109.728 E30.3176
G1 X62.4 Y107.25 E30.40002
G1 X60.6 Y107.25 E30.45989
G1 X60.6 Y112.05 E30.61954
G1 X159.4 Y112.05 E33.90564
G1 X159.4 Y100.25 E34.29811
G1 X157.6 Y100.25 E34.35798
G1 X157.6 Y109.728 E34.67322
G1 X157.551 Y109.889 E34.67881
G1 X157.425 Y110.075 E34.68629
G1 X157.239 Y110.201 E34.69376
G1 X157.078 Y110.25 E34.69935
G1 X108 Y110.25 E36.3317
G1 X107.717 Y110.18 E36.34139
G0 F6000 X107.84 Y109.77
;TYPE:WALL-OUTER
G1 F1200 X107.8 Y109.668 E36.34504
G1 X107.8 Y106.85 E36.43876
G1 X105.2 Y106.85 E36.52524
G1 X105.2 Y109.668 E36.61897
G1 X105.16 Y109.77 E36.62261
G1 X105.035 Y109.848 E36.62751
G1 X63 Y109.85 E38.0256
G1 X62.858 Y109.792 E38.0307
G1 X62.802 Y109.685 E38.03472
G1 X62.8 Y106.85 E38.12901
G1 X60.2 Y106.85 E38.21549
G1 X60.2 Y112.45 E38.40175
G1 X159.8 Y112.45 E41.71445
G1 X159.8 Y99.85 E42.13353
G1 X157.2 Y99.85 E42.22001
G1 X157.198 Y109.685 E42.54712
G1 X157.142 Y109.792 E42.55114
G1 X157.035 Y109.848 E42.55516
G1 X108 Y109.85 E44.18607
G1 X107.84 Y109.77 E44.19202
G0 F6000 X107.546 Y110.504
;TYPE:SKIN
G1 F1200 X107.956 Y110.605 E44.20606
G1 X157.132 Y110.608 E45.84166
G1 X157.411 Y110.516 E45.85143
G1 X157.679 Y110.329 E45.8623
G1 X157.866 Y110.061 E45.87317
G1 X157.958 Y109.782 E45.88294
G1 X157.96 Y100.61 E46.188
G1 X159.04 Y100.61 E46.22392
G1 X159.04 Y111.69 E46.59245
G1 X60.96 Y111.69 E49.8546
G1 X60.96 Y107.61 E49.9903
G1 X62.04 Y107.61 E50.02622
G1 X62.042 Y109.782 E50.09846
G1 X62.134 Y110.061 E50.10823
G1 X62.322 Y110.331 E50.11918
G1 X62.618 Y110.538 E50.13119
G1 X63.001 Y110.61 E50.14415
G1 X105.136 Y110.608 E51.54557
G1 X105.46 Y110.499 E51.55694
G1 X105.768 Y110.225 E51.57065
G1 X105.888 Y110.016 E51.57867
G1 X105.958 Y109.732 E51.58839
G1 X105.96 Y107.61 E51.65897
G1 X107.04 Y107.61 E51.69489
G1 X107.042 Y109.732 E51.76547
G1 X107.091 Y109.96 E51.77323
G1 X107.232 Y110.225 E51.78321
G1 X107.546 Y110.504 E51.79718
G1 F1500 E45.29718
G0 F6000 X107.668 Y110.269
G0 X107.241 Y109.716
G0 X107.228 Y107.422
G0 X105.772 Y107.422
G0 X105.609 Y110.105
G0 X62.462 Y110.188
G0 X62.228 Y107.422
G0 X60.772 Y107.422
G0 X60.772 Y111.878
G0 X61.708 Y111.95
G0 X61.708 Y111.488
G1 F1500 E51.79718
G1 F1200 X61.159 Y110.94 E51.82298
G0 F6000 X61.159 Y110.374
G1 F1200 X62.274 Y111.488 E51.8754
G0 F6000 X62.839 Y111.488
G1 F1200 X61.159 Y109.808 E51.95443
G0 F6000 X61.159 Y109.243
G1 F1200 X61.89 Y109.973 E51.98879
G0 F6000 X61.844 Y109.361
G1 F1200 X61.159 Y108.677 E52.02098
G0 F6000 X61.159 Y108.111
G1 F1200 X61.842 Y108.794 E52.05311
G0 F6000 X61.841 Y108.227
G1 F1200 X61.422 Y107.809 E52.0728
G0 F6000 X61.422 Y107.35
G0 X62.228 Y107.422
G0 X62.572 Y110.078
G0 X62.759 Y110.299
G0 X62.667 Y110.75
G1 F1200 X63.405 Y111.488 E52.10751
G0 F6000 X63.971 Y111.488
G1 F1200 X63.291 Y110.809 E52.13947
G0 F6000 X63.857 Y110.809
G1 F1200 X64.536 Y111.488 E52.17141
G0 F6000 X65.102 Y111.488
G1 F1200 X64.423 Y110.809 E52.20335
G0 F6000 X64.988 Y110.809
G1 F1200 X65.668 Y111.488 E52.23531
G0 F6000 X66.233 Y111.488
G1 F1200 X65.554 Y110.809 E52.26725
G0 F6000 X66.12 Y110.809
G1 F1200 X66.799 Y111.488 E52.29918
